X:533
T: ALS ICH AN EINEM SOMMERTAG
N: E0517B
O: Europa, Mitteleuropa, Deutschland, Schleswig - Holstein; Nassau
R: Liebes - Lied
M: 4/4
L: 1/16
K: C
C,2E,2 | G,4G,4G,4C4 | G,4G,3F,E,4
G,3G, | G,4F,3E,F,4G,3F, | E,8z4
C,2E,2 | G,4G,4G,4C4 | G,4G,3F,E,4
G,3G, | G,4F,3E,F,4G,3F, | E,8z4
C,2E,2 | G,4G,4G,4C4 | G,4G,3F,E,4
C,2C,2 | A,3A,A,3A,C3CB,3A, | A,3G,G,3G,C3C
C3C | D4D3DB,4A,3B, | C4E4G,4
C,2C,2 | A,3A,A,3A,C3CB,3A, | A,3G,G,3G,C3C
C3C | D4D3DB,4A,3B, | C8z4

